assets/1. F-P/Four oclock/Color/Four.Oclock-color.svg

<svg width="100%" height="100%" viewBox="0 0 32 32" fill="none" xmlns="http://www.w3.org/2000/svg">
<path d="M30 16C30 23.732 23.732 30 16 30C8.26801 30 2 23.732 2 16C2 8.26801 8.26801 2 16 2C23.732 2 30 8.26801 30 16Z" fill="url(#paint0_radial_18_13537)"/>
<g filter="url(#filter0_f_18_13537)">
<path fill-rule="evenodd" clip-rule="evenodd" d="M15.0288 8.01587C15.5811 8.01587 16.0288 8.46358 16.0288 9.01587V15.2903C16.6168 15.6319 17.0137 16.2661 17.0199 16.9936L20.6989 19.1177C21.1772 19.3938 21.3411 20.0054 21.0649 20.4837C20.7888 20.962 20.1772 21.1259 19.6989 20.8497L16.0299 18.7314C15.7364 18.9022 15.3952 19 15.0312 19C13.9328 19 13.0424 18.1096 13.0424 17.0112C13.0424 16.2783 13.4387 15.638 14.0288 15.293V9.01587C14.0288 8.46358 14.4765 8.01587 15.0288 8.01587Z" fill="#C4C1C7"/>
</g>
<g filter="url(#filter1_i_18_13537)">
<path fill-rule="evenodd" clip-rule="evenodd" d="M16.0288 7.01587C16.5811 7.01587 17.0288 7.46358 17.0288 8.01587V16.0113C17.0288 16.5635 16.5811 17.0113 16.0288 17.0113C15.4765 17.0113 15.0288 16.5635 15.0288 16.0113V8.01587C15.0288 7.46358 15.4765 7.01587 16.0288 7.01587Z" fill="url(#paint1_linear_18_13537)"/>
</g>
<path fill-rule="evenodd" clip-rule="evenodd" d="M22.0649 19.4837C21.7888 19.962 21.1772 20.1259 20.6989 19.8497L15.5312 16.8661C15.0529 16.59 14.889 15.9784 15.1652 15.5001C15.4413 15.0218 16.0529 14.858 16.5312 15.1341L21.6989 18.1177C22.1772 18.3938 22.3411 19.0054 22.0649 19.4837Z" fill="url(#paint2_linear_18_13537)"/>
<path fill-rule="evenodd" clip-rule="evenodd" d="M22.0649 19.4837C21.7888 19.962 21.1772 20.1259 20.6989 19.8497L15.5312 16.8661C15.0529 16.59 14.889 15.9784 15.1652 15.5001C15.4413 15.0218 16.0529 14.858 16.5312 15.1341L21.6989 18.1177C22.1772 18.3938 22.3411 19.0054 22.0649 19.4837Z" fill="url(#paint3_linear_18_13537)"/>
<path fill-rule="evenodd" clip-rule="evenodd" d="M22.0649 19.4837C21.7888 19.962 21.1772 20.1259 20.6989 19.8497L15.5312 16.8661C15.0529 16.59 14.889 15.9784 15.1652 15.5001C15.4413 15.0218 16.0529 14.858 16.5312 15.1341L21.6989 18.1177C22.1772 18.3938 22.3411 19.0054 22.0649 19.4837Z" fill="url(#paint4_radial_18_13537)"/>
<path fill-rule="evenodd" clip-rule="evenodd" d="M22.0649 19.4837C21.7888 19.962 21.1772 20.1259 20.6989 19.8497L15.5312 16.8661C15.0529 16.59 14.889 15.9784 15.1652 15.5001C15.4413 15.0218 16.0529 14.858 16.5312 15.1341L21.6989 18.1177C22.1772 18.3938 22.3411 19.0054 22.0649 19.4837Z" fill="url(#paint5_linear_18_13537)"/>
<g filter="url(#filter2_ii_18_13537)">
<path fill-rule="evenodd" clip-rule="evenodd" d="M16 27C22.0751 27 27 22.0751 27 16C27 9.92487 22.0751 5 16 5C9.92487 5 5 9.92487 5 16C5 22.0751 9.92487 27 16 27ZM16 30C23.732 30 30 23.732 30 16C30 8.26801 23.732 2 16 2C8.26801 2 2 8.26801 2 16C2 23.732 8.26801 30 16 30Z" fill="url(#paint6_linear_18_13537)"/>
</g>
<path d="M18.02 16.011C18.02 17.1094 17.1296 17.9999 16.0312 17.9999C14.9328 17.9999 14.0424 17.1094 14.0424 16.011C14.0424 14.9126 14.9328 14.0222 16.0312 14.0222C17.1296 14.0222 18.02 14.9126 18.02 16.011Z" fill="url(#paint7_radial_18_13537)"/>
<path d="M18.02 16.011C18.02 17.1094 17.1296 17.9999 16.0312 17.9999C14.9328 17.9999 14.0424 17.1094 14.0424 16.011C14.0424 14.9126 14.9328 14.0222 16.0312 14.0222C17.1296 14.0222 18.02 14.9126 18.02 16.011Z" fill="url(#paint8_radial_18_13537)"/>
<defs>
<filter id="filter0_f_18_13537" x="11.5424" y="6.51587" width="11.1567" height="15.968" filterUnits="userSpaceOnUse" color-interpolation-filters="sRGB">
<feFlood flood-opacity="0" result="BackgroundImageFix"/>
<feBlend mode="normal" in="SourceGraphic" in2="BackgroundImageFix" result="shape"/>
<feGaussianBlur stdDeviation="0.75" result="effect1_foregroundBlur_18_13537"/>
</filter>
<filter id="filter1_i_18_13537" x="15.0288" y="7.01587" width="2.6" height="9.99536" filterUnits="userSpaceOnUse" color-interpolation-filters="sRGB">
<feFlood flood-opacity="0" result="BackgroundImageFix"/>
<feBlend mode="normal" in="SourceGraphic" in2="BackgroundImageFix" result="shape"/>
<feColorMatrix in="SourceAlpha" type="matrix" values="0 0 0 0 0 0 0 0 0 0 0 0 0 0 0 0 0 0 127 0" result="hardAlpha"/>
<feOffset dx="0.6"/>
<feGaussianBlur stdDeviation="0.425"/>
<feComposite in2="hardAlpha" operator="arithmetic" k2="-1" k3="1"/>
<feColorMatrix type="matrix" values="0 0 0 0 0.635294 0 0 0 0 0.227451 0 0 0 0 0.403922 0 0 0 1 0"/>
<feBlend mode="normal" in2="shape" result="effect1_innerShadow_18_13537"/>
</filter>
<filter id="filter2_ii_18_13537" x="1.6" y="1.6" width="28.8" height="28.8" filterUnits="userSpaceOnUse" color-interpolation-filters="sRGB">
<feFlood flood-opacity="0" result="BackgroundImageFix"/>
<feBlend mode="normal" in="SourceGraphic" in2="BackgroundImageFix" result="shape"/>
<feColorMatrix in="SourceAlpha" type="matrix" values="0 0 0 0 0 0 0 0 0 0 0 0 0 0 0 0 0 0 127 0" result="hardAlpha"/>
<feOffset dx="0.4" dy="-0.4"/>
<feGaussianBlur stdDeviation="0.3"/>
<feComposite in2="hardAlpha" operator="arithmetic" k2="-1" k3="1"/>
<feColorMatrix type="matrix" values="0 0 0 0 0.282353 0 0 0 0 0.254902 0 0 0 0 0.313726 0 0 0 1 0"/>
<feBlend mode="normal" in2="shape" result="effect1_innerShadow_18_13537"/>
<feColorMatrix in="SourceAlpha" type="matrix" values="0 0 0 0 0 0 0 0 0 0 0 0 0 0 0 0 0 0 127 0" result="hardAlpha"/>
<feOffset dx="-0.4" dy="0.4"/>
<feGaussianBlur stdDeviation="0.3"/>
<feComposite in2="hardAlpha" operator="arithmetic" k2="-1" k3="1"/>
<feColorMatrix type="matrix" values="0 0 0 0 0.533333 0 0 0 0 0.533333 0 0 0 0 0.533333 0 0 0 1 0"/>
<feBlend mode="normal" in2="effect1_innerShadow_18_13537" result="effect2_innerShadow_18_13537"/>
</filter>
<radialGradient id="paint0_radial_18_13537" cx="0" cy="0" r="1" gradientUnits="userSpaceOnUse" gradientTransform="translate(9.57405 24.4982) rotate(-46.2124) scale(25.2966)">
<stop offset="0.598155" stop-color="#DDDADF"/>
<stop offset="1" stop-color="#BDBABF"/>
</radialGradient>
<linearGradient id="paint1_linear_18_13537" x1="16.0288" y1="7.01587" x2="16.0288" y2="17.0113" gradientUnits="userSpaceOnUse">
<stop stop-color="#F83F4C"/>
<stop offset="1" stop-color="#F74093"/>
</linearGradient>
<linearGradient id="paint2_linear_18_13537" x1="22.0649" y1="19.4837" x2="17.0321" y2="16.578" gradientUnits="userSpaceOnUse">
<stop stop-color="#32183D"/>
<stop offset="1" stop-color="#2C3A65"/>
</linearGradient>
<linearGradient id="paint3_linear_18_13537" x1="19.9407" y1="17.1026" x2="19.4407" y2="17.9686" gradientUnits="userSpaceOnUse">
<stop stop-color="#2E2840"/>
<stop offset="1" stop-color="#2E2840" stop-opacity="0"/>
</linearGradient>
<radialGradient id="paint4_radial_18_13537" cx="0" cy="0" r="1" gradientUnits="userSpaceOnUse" gradientTransform="translate(21.4204 19.8152) rotate(-150) scale(5.73026 0.815281)">
<stop stop-color="#50375F"/>
<stop offset="1" stop-color="#50375F" stop-opacity="0"/>
</radialGradient>
<linearGradient id="paint5_linear_18_13537" x1="22.0649" y1="19.4837" x2="21.4434" y2="19.1249" gradientUnits="userSpaceOnUse">
<stop stop-color="#3E1846"/>
<stop offset="1" stop-color="#3E1846" stop-opacity="0"/>
</linearGradient>
<linearGradient id="paint6_linear_18_13537" x1="24.5108" y1="4.01349" x2="4.28379" y2="28.5336" gradientUnits="userSpaceOnUse">
<stop stop-color="#6D6B70"/>
<stop offset="1" stop-color="#706C74"/>
</linearGradient>
<radialGradient id="paint7_radial_18_13537" cx="0" cy="0" r="1" gradientUnits="userSpaceOnUse" gradientTransform="translate(17.111 15.5526) rotate(134.039) scale(3.40442)">
<stop stop-color="#C9C6CC"/>
<stop offset="1" stop-color="#928E95"/>
</radialGradient>
<radialGradient id="paint8_radial_18_13537" cx="0" cy="0" r="1" gradientUnits="userSpaceOnUse" gradientTransform="translate(16.5937 15.5045) rotate(139.399) scale(2.88111)">
<stop offset="0.527069" stop-color="#776F7F" stop-opacity="0"/>
<stop offset="1" stop-color="#776F7F"/>
</radialGradient>
</defs>
</svg>

<svg width="100%" height="100%" viewBox="0 0 32 32" xmlns="http://www.w3.org/2000/svg"><path fill="url(#a)" d="M30 16c0 7.732-6.268 14-14 14S2 23.732 2 16 8.268 2 16 2s14 6.268 14 14"/><g filter="url(#b)"><path fill="#C4C1C7" fill-rule="evenodd" d="M15.029 8.016a1 1 0 0 1 1 1v6.274c.588.342.985.976.99 1.704l3.68 2.124a1 1 0 1 1-1 1.732l-3.67-2.119a1.989 1.989 0 0 1-2.001-3.438V9.016a1 1 0 0 1 1-1" clip-rule="evenodd"/></g><g filter="url(#c)"><path fill="url(#d)" fill-rule="evenodd" d="M16.029 7.016a1 1 0 0 1 1 1v7.995a1 1 0 0 1-2 0V8.016a1 1 0 0 1 1-1" clip-rule="evenodd"/></g><path fill="url(#e)" fill-rule="evenodd" d="M22.065 19.484a1 1 0 0 1-1.366.366l-5.168-2.984a1 1 0 1 1 1-1.732l5.168 2.984a1 1 0 0 1 .366 1.366" clip-rule="evenodd"/><path fill="url(#f)" fill-rule="evenodd" d="M22.065 19.484a1 1 0 0 1-1.366.366l-5.168-2.984a1 1 0 1 1 1-1.732l5.168 2.984a1 1 0 0 1 .366 1.366" clip-rule="evenodd"/><path fill="url(#g)" fill-rule="evenodd" d="M22.065 19.484a1 1 0 0 1-1.366.366l-5.168-2.984a1 1 0 1 1 1-1.732l5.168 2.984a1 1 0 0 1 .366 1.366" clip-rule="evenodd"/><path fill="url(#h)" fill-rule="evenodd" d="M22.065 19.484a1 1 0 0 1-1.366.366l-5.168-2.984a1 1 0 1 1 1-1.732l5.168 2.984a1 1 0 0 1 .366 1.366" clip-rule="evenodd"/><g filter="url(#i)"><path fill="url(#j)" fill-rule="evenodd" d="M16 27c6.075 0 11-4.925 11-11S22.075 5 16 5 5 9.925 5 16s4.925 11 11 11m0 3c7.732 0 14-6.268 14-14S23.732 2 16 2 2 8.268 2 16s6.268 14 14 14" clip-rule="evenodd"/></g><path fill="url(#k)" d="M18.02 16.011a1.989 1.989 0 1 1-3.978 0 1.989 1.989 0 0 1 3.978 0"/><path fill="url(#l)" d="M18.02 16.011a1.989 1.989 0 1 1-3.978 0 1.989 1.989 0 0 1 3.978 0"/><defs><linearGradient id="d" x1="16.029" x2="16.029" y1="7.016" y2="17.011" gradientUnits="userSpaceOnUse"><stop stop-color="#F83F4C"/><stop offset="1" stop-color="#F74093"/></linearGradient><linearGradient id="e" x1="22.065" x2="17.032" y1="19.484" y2="16.578" gradientUnits="userSpaceOnUse"><stop stop-color="#32183D"/><stop offset="1" stop-color="#2C3A65"/></linearGradient><linearGradient id="f" x1="19.941" x2="19.441" y1="17.103" y2="17.969" gradientUnits="userSpaceOnUse"><stop stop-color="#2E2840"/><stop offset="1" stop-color="#2E2840" stop-opacity="0"/></linearGradient><linearGradient id="h" x1="22.065" x2="21.443" y1="19.484" y2="19.125" gradientUnits="userSpaceOnUse"><stop stop-color="#3E1846"/><stop offset="1" stop-color="#3E1846" stop-opacity="0"/></linearGradient><linearGradient id="j" x1="24.511" x2="4.284" y1="4.013" y2="28.534" gradientUnits="userSpaceOnUse"><stop stop-color="#6D6B70"/><stop offset="1" stop-color="#706C74"/></linearGradient><radialGradient id="a" cx="0" cy="0" r="1" gradientTransform="rotate(-46.212 33.496 1.03)scale(25.2966)" gradientUnits="userSpaceOnUse"><stop offset=".598" stop-color="#DDDADF"/><stop offset="1" stop-color="#BDBABF"/></radialGradient><radialGradient id="g" cx="0" cy="0" r="1" gradientTransform="rotate(-150 13.365 7.038)scale(5.73026 .81528)" gradientUnits="userSpaceOnUse"><stop stop-color="#50375F"/><stop offset="1" stop-color="#50375F" stop-opacity="0"/></radialGradient><radialGradient id="k" cx="0" cy="0" r="1" gradientTransform="rotate(134.039 5.258 11.404)scale(3.40442)" gradientUnits="userSpaceOnUse"><stop stop-color="#C9C6CC"/><stop offset="1" stop-color="#928E95"/></radialGradient><radialGradient id="l" cx="0" cy="0" r="1" gradientTransform="rotate(139.399 5.43 10.821)scale(2.88111)" gradientUnits="userSpaceOnUse"><stop offset=".527" stop-color="#776F7F" stop-opacity="0"/><stop offset="1" stop-color="#776F7F"/></radialGradient><filter id="b" width="11.157" height="15.968" x="11.542" y="6.516" color-interpolation-filters="sRGB" filterUnits="userSpaceOnUse"><feFlood flood-opacity="0" result="BackgroundImageFix"/><feBlend in="SourceGraphic" in2="BackgroundImageFix" result="shape"/><feGaussianBlur result="effect1_foregroundBlur_18_13537" stdDeviation=".75"/></filter><filter id="c" width="2.6" height="9.995" x="15.029" y="7.016" color-interpolation-filters="sRGB" filterUnits="userSpaceOnUse"><feFlood flood-opacity="0" result="BackgroundImageFix"/><feBlend in="SourceGraphic" in2="BackgroundImageFix" result="shape"/><feColorMatrix in="SourceAlpha" result="hardAlpha" values="0 0 0 0 0 0 0 0 0 0 0 0 0 0 0 0 0 0 127 0"/><feOffset dx=".6"/><feGaussianBlur stdDeviation=".425"/><feComposite in2="hardAlpha" k2="-1" k3="1" operator="arithmetic"/><feColorMatrix values="0 0 0 0 0.635294 0 0 0 0 0.227451 0 0 0 0 0.403922 0 0 0 1 0"/><feBlend in2="shape" result="effect1_innerShadow_18_13537"/></filter><filter id="i" width="28.8" height="28.8" x="1.6" y="1.6" color-interpolation-filters="sRGB" filterUnits="userSpaceOnUse"><feFlood flood-opacity="0" result="BackgroundImageFix"/><feBlend in="SourceGraphic" in2="BackgroundImageFix" result="shape"/><feColorMatrix in="SourceAlpha" result="hardAlpha" values="0 0 0 0 0 0 0 0 0 0 0 0 0 0 0 0 0 0 127 0"/><feOffset dx=".4" dy="-.4"/><feGaussianBlur stdDeviation=".3"/><feComposite in2="hardAlpha" k2="-1" k3="1" operator="arithmetic"/><feColorMatrix values="0 0 0 0 0.282353 0 0 0 0 0.254902 0 0 0 0 0.313726 0 0 0 1 0"/><feBlend in2="shape" result="effect1_innerShadow_18_13537"/><feColorMatrix in="SourceAlpha" result="hardAlpha" values="0 0 0 0 0 0 0 0 0 0 0 0 0 0 0 0 0 0 127 0"/><feOffset dx="-.4" dy=".4"/><feGaussianBlur stdDeviation=".3"/><feComposite in2="hardAlpha" k2="-1" k3="1" operator="arithmetic"/><feColorMatrix values="0 0 0 0 0.533333 0 0 0 0 0.533333 0 0 0 0 0.533333 0 0 0 1 0"/><feBlend in2="effect1_innerShadow_18_13537" result="effect2_innerShadow_18_13537"/></filter></defs></svg>
